static/img/kroki/a854a0e12fa23794dc443659ed80b79e.svg

<?xml version="1.0" encoding="us-ascii" standalone="no"?><svg xmlns="http://www.w3.org/2000/svg" xmlns:xlink="http://www.w3.org/1999/xlink" contentStyleType="text/css" height="374px" preserveAspectRatio="none" style="width:281px;height:374px;" version="1.1" viewBox="0 0 281 374" width="281px" zoomAndPan="magnify"><defs/><g><!--class aws_cognito_user--><g id="elem_aws_cognito_user"><rect codeLine="23" fill="#3D176E" height="39.7891" id="aws_cognito_user" rx="2.5" ry="2.5" style="stroke:#000D19;stroke-width:0.5;" width="190" x="64.5" y="328.58"/><ellipse cx="79.5" cy="348.4745" fill="#ADD1B2" rx="11" ry="11" style="stroke:#181818;stroke-width:1.0;"/><path d="M82.4688,354.1152 Q81.8906,354.412 81.25,354.5527 Q80.6094,354.7089 79.9063,354.7089 Q77.4063,354.7089 76.0781,353.0683 Q74.7656,351.412 74.7656,348.287 Q74.7656,345.162 76.0781,343.5058 Q77.4063,341.8495 79.9063,341.8495 Q80.6094,341.8495 81.25,342.0058 Q81.9063,342.162 82.4688,342.4589 L82.4688,345.1777 Q81.8438,344.5995 81.25,344.3339 Q80.6563,344.0527 80.0313,344.0527 Q78.6875,344.0527 78,345.1308 Q77.3125,346.1933 77.3125,348.287 Q77.3125,350.3808 78,351.4589 Q78.6875,352.5214 80.0313,352.5214 Q80.6563,352.5214 81.25,352.2558 Q81.8438,351.9745 82.4688,351.3964 L82.4688,354.1152 Z " fill="#000000"/><text fill="#D9B8FF" font-family="Helvetica" font-size="17" lengthAdjust="spacing" textLength="148" x="98.5" y="354.3598">aws_cognito_user</text></g><!--class aws_resource--><g id="elem_aws_resource"><rect codeLine="26" fill="#3D176E" height="39.7891" id="aws_resource" rx="2.5" ry="2.5" style="stroke:#000D19;stroke-width:0.5;" width="155" x="7" y="167.79"/><ellipse cx="22" cy="187.6845" fill="#ADD1B2" rx="11" ry="11" style="stroke:#181818;stroke-width:1.0;"/><path d="M24.9688,193.3252 Q24.3906,193.622 23.75,193.7627 Q23.1094,193.9189 22.4063,193.9189 Q19.9063,193.9189 18.5781,192.2783 Q17.2656,190.622 17.2656,187.497 Q17.2656,184.372 18.5781,182.7158 Q19.9063,181.0595 22.4063,181.0595 Q23.1094,181.0595 23.75,181.2158 Q24.4063,181.372 24.9688,181.6689 L24.9688,184.3877 Q24.3438,183.8095 23.75,183.5439 Q23.1563,183.2627 22.5313,183.2627 Q21.1875,183.2627 20.5,184.3408 Q19.8125,185.4033 19.8125,187.497 Q19.8125,189.5908 20.5,190.6689 Q21.1875,191.7314 22.5313,191.7314 Q23.1563,191.7314 23.75,191.4658 Q24.3438,191.1845 24.9688,190.6064 L24.9688,193.3252 Z " fill="#000000"/><text fill="#D9B8FF" font-family="Helvetica" font-size="17" lengthAdjust="spacing" textLength="113" x="41" y="193.5698">aws_resource</text></g><!--class resource--><g id="elem_resource"><rect codeLine="29" fill="#3D176E" height="39.7891" id="resource" rx="2.5" ry="2.5" style="stroke:#000D19;stroke-width:0.5;" width="113" x="103" y="7"/><ellipse cx="118" cy="26.8945" fill="#ADD1B2" rx="11" ry="11" style="stroke:#181818;stroke-width:1.0;"/><path d="M120.9688,32.5352 Q120.3906,32.832 119.75,32.9727 Q119.1094,33.1289 118.4063,33.1289 Q115.9063,33.1289 114.5781,31.4883 Q113.2656,29.832 113.2656,26.707 Q113.2656,23.582 114.5781,21.9258 Q115.9063,20.2695 118.4063,20.2695 Q119.1094,20.2695 119.75,20.4258 Q120.4063,20.582 120.9688,20.8789 L120.9688,23.5977 Q120.3438,23.0195 119.75,22.7539 Q119.1563,22.4727 118.5313,22.4727 Q117.1875,22.4727 116.5,23.5508 Q115.8125,24.6133 115.8125,26.707 Q115.8125,28.8008 116.5,29.8789 Q117.1875,30.9414 118.5313,30.9414 Q119.1563,30.9414 119.75,30.6758 Q120.3438,30.3945 120.9688,29.8164 L120.9688,32.5352 Z " fill="#000000"/><text fill="#D9B8FF" font-family="Helvetica" font-size="17" lengthAdjust="spacing" textLength="71" x="137" y="32.7798">resource</text></g><!--class user--><g id="elem_user"><rect codeLine="32" fill="#3D176E" height="39.7891" id="user" rx="2.5" ry="2.5" style="stroke:#000D19;stroke-width:0.5;" width="78" x="196.5" y="167.79"/><ellipse cx="211.5" cy="187.6845" fill="#ADD1B2" rx="11" ry="11" style="stroke:#181818;stroke-width:1.0;"/><path d="M214.4688,193.3252 Q213.8906,193.622 213.25,193.7627 Q212.6094,193.9189 211.9063,193.9189 Q209.4063,193.9189 208.0781,192.2783 Q206.7656,190.622 206.7656,187.497 Q206.7656,184.372 208.0781,182.7158 Q209.4063,181.0595 211.9063,181.0595 Q212.6094,181.0595 213.25,181.2158 Q213.9063,181.372 214.4688,181.6689 L214.4688,184.3877 Q213.8438,183.8095 213.25,183.5439 Q212.6563,183.2627 212.0313,183.2627 Q210.6875,183.2627 210,184.3408 Q209.3125,185.4033 209.3125,187.497 Q209.3125,189.5908 210,190.6689 Q210.6875,191.7314 212.0313,191.7314 Q212.6563,191.7314 213.25,191.4658 Q213.8438,191.1845 214.4688,190.6064 L214.4688,193.3252 Z " fill="#000000"/><text fill="#D9B8FF" font-family="Helvetica" font-size="17" lengthAdjust="spacing" textLength="36" x="230.5" y="193.5698">user</text></g><!--reverse link aws_resource to aws_cognito_user--><g id="link_aws_resource_aws_cognito_user"><path codeLine="35" d="M101.2351,224.1169 C115.6451,254.6369 135.99,297.69 150.42,328.25 " fill="none" id="aws_resource-backto-aws_cognito_user" style="stroke:#FFAF37;stroke-width:2.0;"/><polygon fill="none" points="93.55,207.84,95.8095,226.6786,106.6608,221.5552,93.55,207.84" style="stroke:#FFAF37;stroke-width:2.0;"/></g><!--reverse link user to aws_cognito_user--><g id="link_user_aws_cognito_user"><path codeLine="36" d="M218.5623,224.0777 C203.9623,254.5977 183.33,297.69 168.7,328.25 " fill="none" id="user-backto-aws_cognito_user" style="stroke:#FFAF37;stroke-width:2.0;"/><polygon fill="none" points="226.33,207.84,213.1497,221.4885,223.9749,226.6669,226.33,207.84" style="stroke:#FFAF37;stroke-width:2.0;"/></g><!--reverse link resource to aws_resource--><g id="link_resource_aws_resource"><path codeLine="37" d="M142.7649,63.3269 C128.3549,93.8469 108.01,136.9 93.58,167.46 " fill="none" id="resource-backto-aws_resource" style="stroke:#FFAF37;stroke-width:2.0;"/><polygon fill="none" points="150.45,47.05,137.3392,60.7652,148.1905,65.8886,150.45,47.05" style="stroke:#FFAF37;stroke-width:2.0;"/></g><!--reverse link resource to user--><g id="link_resource_user"><path codeLine="38" d="M176.4377,63.2877 C191.0377,93.8077 211.67,136.9 226.3,167.46 " fill="none" id="resource-backto-user" style="stroke:#FFAF37;stroke-width:2.0;"/><polygon fill="none" points="168.67,47.05,171.0251,65.8769,181.8503,60.6985,168.67,47.05" style="stroke:#FFAF37;stroke-width:2.0;"/></g><!--SRC=[XP3DReCm48JlF8Mbd96WKKkGUacHglOILKtlaS5hi00RhKrH-lFk3QHf7Gp9TURRdTaj10C2TMFsf8Ow1TIUBeLiADAQh15LbwXA8LbmJlao6fkFIfghm8RMG9wWUWSZCZectWgHbHAq9ZUMzK2pCaVLIdPSRv1AVR106ejAAghrsXWKQMl0AiFYTCNvc1mlNInP6Ds1WobaWBz840GiZCV8rQYBT_yHM_419BIVjb46d9fEn41TRDaJLaddq9C_s_65CYPaJcujxVNO2INWcRujA5DTJtDQQJj66q1GPjz0ubm5yOhnQ19-deEzh7yTePtUPIgNmgXTgmzjFZtls_8Gj6en0rkVqlvdpwRkltpVTqAyWPxn9cPFqjWR-1y0]--></g></svg>

<svg xmlns="http://www.w3.org/2000/svg" width="281" height="374" viewBox="0 0 281 374"><rect width="190" height="39.789" x="64.5" y="328.58" fill="#3D176E" rx="2.5" ry="2.5" style="stroke:#000d19;stroke-width:.5"/><circle cx="79.5" cy="348.474" r="11" fill="#ADD1B2" style="stroke:#181818;stroke-width:1"/><path d="M82.469 354.115q-.578.297-1.219.438-.64.156-1.344.156-2.5 0-3.828-1.64-1.312-1.657-1.312-4.782t1.312-4.781q1.328-1.656 3.828-1.656.703 0 1.344.156.656.156 1.219.453v2.719q-.625-.579-1.219-.844-.594-.281-1.219-.281-1.344 0-2.031 1.078-.687 1.062-.687 3.156t.687 3.172q.688 1.062 2.031 1.062.625 0 1.219-.265.594-.281 1.219-.86z"/><text x="98.5" y="354.36" fill="#D9B8FF" font-family="Helvetica" font-size="17" textLength="148">aws_cognito_user</text><rect width="155" height="39.789" x="7" y="167.79" fill="#3D176E" rx="2.5" ry="2.5" style="stroke:#000d19;stroke-width:.5"/><circle cx="22" cy="187.685" r="11" fill="#ADD1B2" style="stroke:#181818;stroke-width:1"/><path d="M24.969 193.325q-.578.297-1.219.438-.64.156-1.344.156-2.5 0-3.828-1.64-1.312-1.657-1.312-4.782t1.312-4.781q1.328-1.656 3.828-1.656.703 0 1.344.156.656.156 1.219.453v2.719q-.625-.578-1.219-.844-.594-.281-1.219-.281-1.343 0-2.031 1.078-.687 1.062-.687 3.156t.687 3.172q.688 1.062 2.031 1.062.625 0 1.219-.265.594-.281 1.219-.86z"/><text x="41" y="193.57" fill="#D9B8FF" font-family="Helvetica" font-size="17" textLength="113">aws_resource</text><rect width="113" height="39.789" x="103" y="7" fill="#3D176E" rx="2.5" ry="2.5" style="stroke:#000d19;stroke-width:.5"/><circle cx="118" cy="26.895" r="11" fill="#ADD1B2" style="stroke:#181818;stroke-width:1"/><path d="M120.969 32.535q-.578.297-1.219.438-.64.156-1.344.156-2.5 0-3.828-1.64-1.312-1.657-1.312-4.782t1.312-4.781q1.328-1.656 3.828-1.656.703 0 1.344.156.656.156 1.219.453v2.719q-.625-.578-1.219-.844-.594-.281-1.219-.281-1.344 0-2.031 1.078-.687 1.062-.687 3.156t.687 3.172q.688 1.062 2.031 1.062.625 0 1.219-.265.594-.281 1.219-.86z"/><text x="137" y="32.78" fill="#D9B8FF" font-family="Helvetica" font-size="17" textLength="71">resource</text><rect width="78" height="39.789" x="196.5" y="167.79" fill="#3D176E" rx="2.5" ry="2.5" style="stroke:#000d19;stroke-width:.5"/><circle cx="211.5" cy="187.685" r="11" fill="#ADD1B2" style="stroke:#181818;stroke-width:1"/><path d="M214.469 193.325q-.578.297-1.219.438-.64.156-1.344.156-2.5 0-3.828-1.64-1.312-1.657-1.312-4.782t1.312-4.781q1.328-1.656 3.828-1.656.703 0 1.344.156.656.156 1.219.453v2.719q-.625-.578-1.219-.844-.594-.281-1.219-.281-1.344 0-2.031 1.078-.687 1.062-.687 3.156t.687 3.172q.688 1.062 2.031 1.062.625 0 1.219-.265.594-.281 1.219-.86z"/><text x="230.5" y="193.57" fill="#D9B8FF" font-family="Helvetica" font-size="17" textLength="36">user</text><g fill="none"><path d="M101.235 224.117c14.41 30.52 34.755 73.573 49.185 104.133" style="stroke:#ffaf37;stroke-width:2"/><path d="m93.55 207.84 2.26 18.839 10.85-5.124z" style="stroke:#ffaf37;stroke-width:2"/></g><path fill="none" d="M218.562 224.078c-14.6 30.52-35.232 73.612-49.862 104.172m57.63-120.41-13.18 13.648 10.825 5.179z" style="stroke:#ffaf37;stroke-width:2"/><g fill="none"><path d="M142.765 63.327C128.355 93.847 108.01 136.9 93.58 167.46" style="stroke:#ffaf37;stroke-width:2"/><path d="m150.45 47.05-13.11 13.715 10.85 5.124z" style="stroke:#ffaf37;stroke-width:2"/></g><path fill="none" d="M176.438 63.288c14.6 30.52 35.232 73.612 49.862 104.172M168.67 47.05l2.355 18.827 10.825-5.178z" style="stroke:#ffaf37;stroke-width:2"/></svg>
